elevator.svg

<svg fill="currentColor" viewBox="0 0 24 24"><path d="m7 2 4 4H8v4H6V6H3zm10 8-4-4h3V2h2v4h3zM7 12h10a2 2 0 0 1 2 2v6a2 2 0 0 1-2 2H7a2 2 0 0 1-2-2v-6a2 2 0 0 1 2-2m0 2v6h10v-6z"/></svg>

<svg  viewBox="0 0 24 24" fill="currentColor"><path  d="M7,2L11,6H8V10H6V6H3L7,2M17,10L13,6H16V2H18V6H21L17,10M7,12H17A2,2 0 0,1 19,14V20A2,2 0 0,1 17,22H7A2,2 0 0,1 5,20V14A2,2 0 0,1 7,12M7,14V20H17V14H7Z"/></svg>
